optimized/24/outline/english.svg

<svg viewBox="0 0 24 24" fill="none" xmlns="http://www.w3.org/2000/svg">
  <g clip-path="url(#clip0_4643_44)">
    <path d="M15.8438 9.49292C16.2555 9.49292 16.6013 9.54232 16.8812 9.64112C17.1694 9.73169 17.3999 9.87165 17.5728 10.061C17.7457 10.2504 17.8692 10.485 17.9433 10.765C18.0174 11.0367 18.0544 11.3578 18.0544 11.7283V15.5344C18.0544 15.9492 17.7182 16.2854 17.3035 16.2854C16.8887 16.2854 16.5525 15.9492 16.5525 15.5344V12.1976C16.5525 11.9753 16.536 11.7859 16.5031 11.6295C16.4702 11.4648 16.4125 11.3331 16.3302 11.2343C16.2561 11.1355 16.1491 11.0655 16.0091 11.0243C15.8691 10.9749 15.5593 10.947 15.337 10.947C14.9665 10.947 14.5833 11.0161 14.3446 11.1478C14.1058 11.2796 13.937 11.5183 13.8382 11.8641V15.5369C13.8382 15.9503 13.5031 16.2854 13.0897 16.2854C12.6763 16.2854 12.3412 15.9503 12.3412 15.5369V10.3649C12.3412 9.95153 12.6763 9.61642 13.0897 9.61642C13.5031 9.61642 13.8382 9.95153 13.8382 10.3649V10.4192C14.0194 10.1063 14.2911 9.87577 14.6533 9.72757C15.0156 9.57114 15.358 9.49292 15.8438 9.49292Z" fill="#333333"/>
    <path d="M11.1891 15.5347C11.1891 15.12 10.8529 14.7839 10.4383 14.7839H7.44447V12.6472H10.4353C10.8497 12.6472 11.1856 12.3112 11.1856 11.8968C11.1856 11.4824 10.8497 11.1464 10.4353 11.1464H7.44447V9.21356H10.4361C10.8501 9.21356 11.1856 8.87799 11.1856 8.46405C11.1856 8.05011 10.8501 7.71454 10.4361 7.71454H6.66011C6.26547 7.71454 5.94556 8.03446 5.94556 8.42909V15.5704C5.94556 15.9653 6.26568 16.2854 6.66058 16.2854H10.4383C10.8529 16.2854 11.1891 15.9493 11.1891 15.5347Z" fill="#333333"/>
    <path fill-rule="evenodd" clip-rule="evenodd" d="M2.75 5.5C2.75 3.98122 3.98122 2.75 5.5 2.75H18.5C20.0188 2.75 21.25 3.98122 21.25 5.5V18.5C21.25 20.0188 20.0188 21.25 18.5 21.25H5.5C3.98122 21.25 2.75 20.0188 2.75 18.5V5.5ZM5.5 4.25C4.80964 4.25 4.25 4.80964 4.25 5.5V18.5C4.25 19.1904 4.80964 19.75 5.5 19.75H18.5C19.1904 19.75 19.75 19.1904 19.75 18.5V5.5C19.75 4.80964 19.1904 4.25 18.5 4.25H5.5Z" fill="#333333"/>
  </g>
  <defs>
    <clipPath id="clip0_4643_44">
      <rect width="24" height="24" fill="white"/>
    </clipPath>
  </defs>
</svg>

<svg xmlns="http://www.w3.org/2000/svg" width="24" height="24" fill="none">
  <g fill="#333" clip-path="url(#a)">
    <path d="M15.844 9.493c.412 0 .757.05 1.037.148.288.09.519.23.692.42.173.19.296.424.37.704.074.272.111.593.111.963v3.806a.75.75 0 1 1-1.502 0v-3.336c0-.223-.016-.412-.049-.569a.875.875 0 0 0-.173-.395.597.597 0 0 0-.32-.21c-.14-.05-.45-.077-.673-.077-.37 0-.754.07-.992.2-.24.133-.408.371-.507.717v3.673a.748.748 0 1 1-1.497 0v-5.172a.748.748 0 0 1 1.497 0v.054c.181-.313.453-.543.815-.691a2.792 2.792 0 0 1 1.19-.235ZM11.19 15.535a.75.75 0 0 0-.752-.751H7.444v-2.137h2.991a.75.75 0 0 0 0-1.5h-2.99V9.213h2.991a.75.75 0 1 0 0-1.5H6.66a.715.715 0 0 0-.714.715v7.141c0 .395.32.715.715.715h3.777a.75.75 0 0 0 .751-.75Z"/>
    <path fill-rule="evenodd" d="M2.75 5.5A2.75 2.75 0 0 1 5.5 2.75h13a2.75 2.75 0 0 1 2.75 2.75v13a2.75 2.75 0 0 1-2.75 2.75h-13a2.75 2.75 0 0 1-2.75-2.75v-13ZM5.5 4.25c-.69 0-1.25.56-1.25 1.25v13c0 .69.56 1.25 1.25 1.25h13c.69 0 1.25-.56 1.25-1.25v-13c0-.69-.56-1.25-1.25-1.25h-13Z" clip-rule="evenodd"/>
  </g>
  <defs>
    <clipPath id="a">
      <path fill="#fff" d="M0 0h24v24H0z"/>
    </clipPath>
  </defs>
</svg>
